!!!COS: Dunstable, John (???)
!!!COS: Power, Leonel (???)
!!!OTL: Alma redemptoris mater
!!!ONB: Conflicting Attribution No. 1 (LP21 OR JD60).
!!!YOR: from: "Musica Britannica" Vol. 8, edited by Manfred F. Bukofzer,
!!!YOR: 2nd rev. ed. (prepared by Margaret Bent, Ian Bent & Brian Trowell), pp.146-148
!!!YOO: Royal Musical Association (London)
!!!YOY: 1970
**kern	**kern	**kern
*ICvox	*ICvox	*ICvox
! tenor	! contratenor	! discantus
*M3/4	*M3/4	*M3/4
=1	=1	=1
*>A	*>A	*>A
!! Section 'A'; (O) mensuration.
[2.F	[2.F	[2.f
=2	=2	=2
2.F]	2.F]	2f]
.	.	4a
=3	=3	=3
2.c	2.C	4g
.	.	2e
=4	=4	=4
[2.d	2.BB-	4f
.	.	4d
.	.	[4f
=5	=5	=5
2.d]	4F	4f]
.	2G	4.b-
.	.	8a
=6	=6	=6
2.c	2.C	4a
.	.	4g
.	.	8e
.	.	8f
=7	=7	=7
2.Bn	4r	8g
.	.	4f
.	2G	.
.	.	8e
.	.	4d
=8	=8	=8
2.c	2.C	4c
.	.	8d
.	.	4e
.	.	8d
=9	=9	=9
2F	2r	8.f
.	.	16e
.	.	8f
.	.	8.e
[4A	4c	.
.	.	16c
.	.	[8f
=10	=10	=10
4A]	4A	16f]
.	.	16e
.	.	8f
2G	4B-	8g
.	.	8e
.	4G	4e
=11	=11	=11
[2.F	4c	2.f
.	8d	.
.	4f	.
.	8e	.
=12	=12	=12
2.F]	4d	2.r
.	8c	.
.	8.c	.
.	16A	.
.	8Bnx	.
=13	=13	=13
[2.C	2c	[4g
.	.	12g]
.	.	12f
.	.	12g
.	4A	8a
.	.	8g
=14	=14	=14
2.C]	4G	4.e
.	4A	.
.	.	8f
.	4G	4g
=15	=15	=15
2r	2D	4f
.	.	4.d
4F	[4A	.
.	.	8c
=16	=16	=16
2.F	2.A]	4c
.	.	4r
.	.	4f
=17	=17	=17
2C	4G	8e
.	.	8f
.	2C	8g
.	.	16f
.	.	16g
[4c	.	8a
.	.	8g
=18	=18	=18
4c]	4r	4e
2Bnx	2G	4d
.	.	[4g
=19	=19	=19
2c	4C	4g]
.	2F	4.a
4d	.	.
.	.	8b-x
=20	=20	=20
4c	4F	4.a
2B-	4r	.
.	.	16g
.	.	16a
.	4G	8g
.	.	8f
=21	=21	=21
[2.A	2.d	2.a
=22	=22	=22
2.A]	2A	2r
.	[4F	4a
=23	=23	=23
2.d	4F]	4.a
.	2d	.
.	.	8f
.	.	8a
.	.	8b-x
=24	=24	=24
2c	2r	4cc
.	.	8a
.	.	8b-x
4A	4c	8.a
.	.	16f
=25	=25	=25
4B-	4d	2f
2G	4.Bnx	.
.	.	4e
.	8A	.
=26	=26	=26
[2.F	2.c	8.f
.	.	16e
.	.	8f
.	.	8g
.	.	8f
.	.	8d
=27	=27	=27
2F]	4A	4c
.	8F	4r
.	4D	.
4F	.	4d
.	8F	.
=28	=28	=28
4G	4C	8e
.	.	4g
2A	8c	.
.	8d	8f
.	8c	8.e
.	[8A	.
.	.	16d
=29	=29	=29
4F	8A]	8.d
.	8F	.
.	.	16c
2E	2G	8d
.	.	4c#x
.	.	8Bn
=30	=30	=30
[2.D	4A	2.d
.	4r	.
.	4d	.
=31	=31	=31
2.D]	8.d	2r
.	16B-	.
.	8c	.
.	4d	.
.	.	4f
.	[8A	.
=32	=32	=32
2r	8A]	2f
.	8.d	.
.	16e	.
.	8f	.
4F	8c	8a
.	8d	8b-x
=33	=33	=33
2.F	8c	4.cc
.	4.f	.
.	.	8dd
.	8c	8cc
.	8d	[8a
=34	=34	=34
2C	8e	8a]
.	8e	8g
.	4c	8e
.	.	8.g
[4F	4r	.
.	.	16f
.	.	16e
.	.	16d
=35	=35	=35
4F]	4A	8c
.	.	8d
2G	4G	8e
.	.	8f
.	4B-	8g
.	.	8e
=36	=36	=36
2.F	8c	4f
.	4d	.
.	.	4r
.	4c	.
.	.	4a
.	8A	.
=37	=37	=37
2r	8F	4.a
.	4c	.
.	8A	8f
4F	8c	8a
.	8d	8b-x
=38	=38	=38
2.F	4c	4.cc
.	4r	.
.	.	8b-x
.	4f	[4a
=39	=39	=39
2.C	2e	8a]
.	.	8g
.	.	4.g
.	[4c	.
.	.	8e
=40	=40	=40
2r	4c]	4f
.	2F	4.d
4F	.	.
.	.	8c
=41	=41	=41
2.F	4r	4c
.	4c	4r
.	4d	4f
=42	=42	=42
2C	4e	4g
.	8c	4.a
.	4A	.
[4F	.	.
.	8F	8f
=43	=43	=43
4F]	8c	4f
.	4d	.
2G	.	8e
.	8c	8e
.	4B-	8f
.	.	8d
=44	=44	=44
2.F	4c	4f
.	8d	2r
.	8c	.
.	8A	.
.	[8c	.
=45	=45	=45
2r	8c]	4cc
.	8A	.
.	4G	2dd
4F	4F	.
=46	=46	=46
2.F	4r	2cc
.	4f	.
.	4d	[4a
=47	=47	=47
2.A	2e	4a]
.	.	4g
.	[4c	4e
=48	=48	=48
2r	4c]	8f
.	.	8d
.	2A	8c
.	.	4f
4F	.	.
.	.	8g
=49	=49	=49
4.F	2F	8a
.	.	8b
.	.	4.cc
8G	.	.
4A	[4D	.
.	.	16b
.	.	16cc
=50	=50	=50
4B-	4D]	4dd
2c	4E-	8cc
.	.	8a
.	4C	8b-
.	.	[8a
=51	=51	=51
4A	4r	8a]
.	.	8.f
2G	8.G	.
.	.	16e
.	.	8f
.	16A	.
.	4Bnx	8g
.	.	8e
=52	=52	=52
[2.F	[2.c	[2.f
=52a	=52a	=52a
2.F]	2.c]	2.f]
=53	=53	=53
*>B	*>B	*>B
!! Section 'B'; (C/) mensuration.
*M2/2	*M2/2	*M2/2
1r	1c	2r
.	.	2c
=54	=54	=54
1r	2A	4e
.	.	4f
.	2G	4.g
.	.	8e
=55	=55	=55
1r	4B-	4g
.	4A	4.a
.	2c	.
.	.	8g
.	.	8f
.	.	16g
.	.	16e
=56	=56	=56
1r	1d	2d
.	.	4r
.	.	[4a
=57	=57	=57
1r	4c	4a]
.	4B-	4.g
.	2A	.
.	.	16f#x
.	.	16g
.	.	8f#x
.	.	8e
=58	=58	=58
1r	2G	4g
.	.	4.e
.	4c	.
.	.	8c
.	[4c	4e
=59	=59	=59
1r	4c]	2d
.	4Bnx	.
.	2c	2c
=60	=60	=60
1r	2r	2r
.	2c	2e
=61	=61	=61
1r	2d	4d
.	.	4f
.	4c	4.e
.	[4A	.
.	.	8c
=62	=62	=62
1r	4A]	4f
.	4B-	4g
.	4A	2a
.	[4F	.
=63	=63	=63
1r	4F]	4.cc
.	4.c	.
.	.	8b
.	.	8a
.	8d	8g
.	4e	4g
=64	=64	=64
1r	4d	8b
.	.	4dd
.	4f	.
.	.	8cc
.	4.e	8cc
.	.	8b
.	.	8g
.	8c	8a
=65	=65	=65
1r	2d	8cc
.	.	4b
.	.	8a
.	[2c	2cc
=66	=66	=66
1r	2c]	4r
.	.	2a
.	[2f	.
.	.	[4dd
=67	=67	=67
1r	4f]	4dd]
.	4e	2cc
.	4c	.
.	4f	4a
=68	=68	=68
1r	4e	4.g
.	2d	.
.	.	8f
.	.	4d
.	4c#x	4e
=69	=69	=69
1r	4d	4d
.	4c	4r
.	4A	8f
.	.	8g
.	[4F	8a
.	.	16g
.	.	16a
=70	=70	=70
1r	4F]	8b-
.	.	8a
.	4A	8g
.	.	16a
.	.	16f
.	2G	8f
.	.	16e
.	.	16f
.	.	8e
.	.	8d
=71	=71	=71
1r	2F	1f
.	2r	.
=72	=72	=72
1r	2c	1r
.	4e	.
.	4f	.
=73	=73	=73
1r	4e	2c
.	2c	.
.	.	4e
.	4d	4f
=74	=74	=74
1r	2B-	8g
.	.	8d
.	.	8g
.	.	16f
.	.	16g
.	2A	8a
.	.	4f#x
.	.	8e
=75	=75	=75
1r	4G	4g
.	2B-	4r
.	.	2g
.	4c	.
=76	=76	=76
1r	4A	4a
.	4F	4.cc
.	4G	.
.	.	8b-x
.	4B-	8g
.	.	16f
.	.	16g
=77	=77	=77
1r	2A	8.a
.	.	16f
.	.	4f
.	2G	8e
.	.	4g
.	.	8f
=78	=78	=78
1r	4r	4d
.	2.d	4r
.	.	4.f
.	.	8g
=79	=79	=79
1r	4.f	4a
.	.	4.a
.	8c	.
.	4d	.
.	.	8b
.	4c	[4cc
=80	=80	=80
1r	4.f	8cc]
.	.	8a
.	.	8cc
.	16e	8b
.	16f	.
.	8e	4g
.	8d	.
.	[4f	4f
=81	=81	=81
1r	8f]	4r
.	8e	.
.	8c	8a
.	8d	8b
.	4e	4cc
.	4d	[4dd
=82	=82	=82
1r	4Bn	4dd]
.	4c	[4cc
.	2d	12cc]
.	.	12b
.	.	12cc
.	.	8b
.	.	8a
=83	=83	=83
1r	4c	2cc
.	2f	.
.	.	4.a
.	[4e	.
.	.	8g
=84	=84	=84
1r	8e]	4e
.	8c	.
.	4.c	4a
.	.	8g
.	8d	8f
.	4Bnx	4d
=85	=85	=85
1r	4c	4c
.	2A	4r
.	.	4f
.	4B-	8g
.	.	8b-
=86	=86	=86
1r	2d	8b-
.	.	8a
.	.	8f
.	.	16e
.	.	16f
.	4c	8g
.	.	8f
.	4Bn	4d
=87	=87	=87
1r	4c	8c
.	.	8e
.	4A	8f
.	.	4g
.	2G	.
.	.	8f
.	.	8d
.	.	8e
=88	=88	=88
1r	1F	1f
=89	=89	=89
*>C	*>C	*>C
!! Section 'C'; (C/) mensuration.
[1c	2r	1g
.	2C	.
=90	=90	=90
1c]	4C	2a
.	4F	.
.	4.E	4.g
.	8C	8e
=91	=91	=91
1A	4D	4f
.	2A	2e
.	4D	[4a
=92	=92	=92
[1c	1C	4a]
.	.	2g
.	.	[4e
=93	=93	=93
1c]	2r	8e]
.	.	8c
.	.	4c
.	2e	4r
.	.	4g
=94	=94	=94
1F	2f	4a
.	.	4.cc
.	4c	.
.	.	8b
.	4d	[4a
=95	=95	=95
4r	4c	8a]
.	.	8g
4c	2r	2g
2c	.	.
.	4A	4cc
=96	=96	=96
[1d	4G	4b
.	2.D	4.a
.	.	8g
.	.	4a
=97	=97	=97
1d]	2G	8b
.	.	4dd
.	.	8cc
.	4F	8cc
.	.	16b
.	.	16cc
.	4D	8b
.	.	8a
=98	=98	=98
1c	4E	2cc
.	4.A	.
.	.	2r
.	8G	.
.	8F	.
.	8E	.
=99	=99	=99
1d	2D	4a
.	.	4.dd
.	2G	.
.	.	8cc
.	.	8b
.	.	8a
=100	=100	=100
1c	2r	4a
.	.	4g
.	4A	4e
.	4F	4a
=101	=101	=101
1B-	2G	4.b-
.	.	8g
.	4r	4g
.	4d	8f
.	.	8g
=102	=102	=102
1A	4c	2a
.	2A	.
.	.	4r
.	4D	4f#x
=103	=103	=103
4r	4E	4g
4c	4C	4.e
2c	4r	.
.	.	8c
.	4c	4c
=104	=104	=104
2F	2c	4r
.	.	2cc
4r	2F	.
4c	.	4a
=105	=105	=105
2c	4r	4g
.	4c	4cc
2G	2d	4b
.	.	[4dd
=106	=106	=106
1F	2A	8dd]
.	.	8cc
.	.	4.cc
.	4c	.
.	.	8b
.	4d	8a
.	.	8g
=107	=107	=107
4r	4.e	2g
4E	.	.
.	8c	.
2F	4d	4f
.	4f	[4a
=108	=108	=108
2C	2e	4a]
.	.	4g
4r	2c	4.e
4E	.	.
.	.	8c
=109	=109	=109
2F	4r	4d
.	4A	4.f
2D	4B-	.
.	.	8g
.	4A	[4a
=110	=110	=110
1C	2c	4a]
.	.	4g
.	2G	2e
=111	=111	=111
4r	4F	4a
4c	4E	4g
2c	4F	4r
.	4C	4cc
=112	=112	=112
2F	4r	8cc
.	.	16b
.	.	16cc
.	4c	8dd
.	.	8cc
4r	2c	16b
.	.	16cc
.	.	8a
4c	.	4g
=113	=113	=113
2c	2F	4r
.	.	4cc
2G	4r	2b
.	4e	.
=114	=114	=114
1F	4.f	2a
.	8d	.
.	4c	4r
.	4d	4a
=115	=115	=115
4r	2e	2g
4E	.	.
2F	4d	4r
.	[4c	4a
=116	=116	=116
2C	4c]	4g
.	4A	4e
4r	4G	2g
4E	[4c	.
=117	=117	=117
2F	4c]	2a
.	4.d	.
2D	.	4r
.	8A	.
.	4Bnx	4f#
=118	=118	=118
1C	2c	4g
.	.	4.a
.	4r	.
.	.	8g
.	[4G	4g
=119	=119	=119
4r	2G]	4.e
4E	.	.
.	.	8c
4F	4A	4d
[4C	4G	4e
=120	=120	=120
4C]	4c	4r
4F	4d	4a
4E	4e	4g
[4F	4c	4cc
=121	=121	=121
4F]	2A	8dd
.	.	8cc
4c	.	4.cc
2d	2G	.
.	.	16b
.	.	16cc
.	.	8b
.	.	8a
=122	=122	=122
4c	4A	4.cc
4.A	4F	.
.	.	8a
.	4D	8f
8B-	.	8g
4c	4C	8a
.	.	8b-
=123	=123	=123
4F	4r	8.a
.	.	16f
4A	4c	8f
.	.	16e
.	.	16f
2G	4d	8.g
.	.	16d
.	4B-	4e
=124	=124	=124
1F	1c	1f
=125	=125	=125
*>D	*>D	*>D
!! Section 'D'; (O) mensuration.
*M3/4	*M3/4	*M3/4
2.r	2r	2.r
.	4f	.
=126	=126	=126
2.r	4.f	2f
.	8e	.
.	8f	8a
.	8d	8b
=127	=127	=127
2.r	4c	4cc
.	4d	8b-
.	.	8.a
.	8f	.
.	.	16f
.	8e	[8g
=128	=128	=128
2.r	4c	8g]
.	.	8e
.	8B-	8g
.	4d	8f
.	.	4d
.	8f	.
=129	=129	=129
2.r	8e	4c
.	8c	.
.	4d	4r
.	4r	8f
.	.	8g
=130	=130	=130
2.r	4c	4a
.	8G	8b
.	8A	4cc
.	8F	.
.	[8c	8g
=131	=131	=131
2.r	8c]	8cc
.	8B-	4dd
.	8G	.
.	8c	8cc
.	4d	8a
.	.	8b
=132	=132	=132
2.r	2c	2.cc
.	4F	.
=133	=133	=133
*>E	*>E	*>E
!! Section 'E'; (O) mensuration.
[2.F	8F	2.r
.	8G	.
.	4.A	.
.	8F	.
=134	=134	=134
2F]	4F	2a
.	4D	.
4c	4E	4g
=135	=135	=135
2d	2D	4b-
.	.	8a
.	.	8f
4c	4r	8g
.	.	8a
=136	=136	=136
4A	4A	8.f
.	.	16e
2B-	2G	8g
.	.	8f
.	.	4d
=137	=137	=137
2c	2C	4c
.	.	4g
[4A	[4F	8a
.	.	8f
=138	=138	=138
4A]	4F]	8.f
.	.	16c
2G	4r	12d
.	.	12e
.	.	12f
.	4G	6e
.	.	12d
=139	=139	=139
[2.F	4c	2.f
.	4.d	.
.	8c	.
=140	=140	=140
2.F]	8d	2.r
.	4f	.
.	8e	.
.	8d	.
.	[8c	.
=141	=141	=141
4.C	8c]	2r
.	8A	.
.	8c	.
8D	8B-	.
4E	4G	4c
=142	=142	=142
4F	4F	4d
4r	2A	2f
4F	.	.
=143	=143	=143
4.C	4G	4e
.	2r	4r
8D	.	.
4E	.	4g
=144	=144	=144
2F	2D	4.a
.	.	8b
4A	4C	[4cc
=145	=145	=145
4c	4F	4cc]
2d	2D	4.b
.	.	8a
=146	=146	=146
4c	4r	8.a
.	.	16e
2B-	2d	8a
.	.	4g
.	.	8f
=147	=147	=147
2.A	8c	2a
.	4A	.
.	8.F	.
.	.	4r
.	16G	.
.	8A	.
=148	=148	=148
2d	2D	4f
.	.	4.b-
4c	[4F	.
.	.	8a
=149	=149	=149
4A	4F]	4a
2B-	2BB-	8f
.	.	8g
.	.	8f
.	.	8d
=150	=150	=150
4.A	2F	8c
.	.	8d
.	.	4f
8F	.	.
4G	4G	8e
.	.	8g
=151	=151	=151
4D	4.A	8f
.	.	8.d
4F	.	.
.	.	16c
.	8F	8d
4E	4G	8e
.	.	8c#x
=152	=152	=152
2.D	4A	2d
.	8B-	.
.	4d	.
.	.	4r
.	8c	.
=153	=153	=153
2r	8A	4f
.	8B-	.
.	4c	4.a
4F	4d	.
.	.	8g
=154	=154	=154
4C	4e	4g
8D	8d	8f
4E	8.c	8e
.	.	8c
.	16G	.
8F	8A	8d
=155	=155	=155
4G	4G	8e
.	.	8d
8A	2r	8f
8B-	.	8g
8A	.	4b-
16B-	.	.
[16c	.	.
=156	=156	=156
8c]	4.c	8.a
8F	.	.
.	.	16f
8A	.	8f
8G	8d	16e
.	.	16f
4G	4Bnx	8e
.	.	8d
=157	=157	=157
[2.F	[2.c	[2.f
=158	=158	=158
2.F]	2.c]	2.f]
==	==	==
*-	*-	*-
!!!ENC: Mark Laxton
!!!EDD: Mark Laxton
!!!YEC: Mark Laxton, 1987
!!!EMD: Reference records added by D. Huron, 2001
!!!EEV: 1.1
